X:1
T:Speed the Light (Bradley)
T:Speed the Light (Bradley)
T:James Holmes Rosecrans
T:Anna D. Bradley, 1895
T:Public Domain Courtesy of the Cyber Hymnal™
T:Public Domain Courtesy of the Cyber Hymnal™
C:James Holmes Rosecrans
Z:Public Domain
Z:Courtesy of the Cyber Hymnal™
%%score ( 1 2 ) ( 3 4 )
L:1/8
Q:1/4=97
M:4/4
K:Bb
V:1 treble 
V:2 treble 
V:3 bass 
V:4 bass 
V:1
 [B,D]>[DF] | [DB]4- [DB]>[Fd] [Fc]>[FB] | [EG]6 [CA]>[DB] | [Ec]4- [Ec]>F [FB]>[Fc] | %4
w: 1.~There’s a|land * be- yond the|sea Where the|fields * are white and|
w: 2.~Hear our|cry, * for soon for|us Day will|sink * in end- less|
w: 3.~Still they|cry! * Give heed, oh|soul, Je- sus|died * that they might|
w: 4.~Know, my|soul, * ’tis not e-|nough That you|sing * and soft- ly|
 [Fd]6 [B,D]>[DF] | [DB]4- [DB]>[Fd] [Fc]>[FB] | [EG]6 [Ec]>[Ge] | [Fd]4- [Fd]>[DB] [CA]>[Ec] | %8
w: fair; Hear the|cry, * oh, souls re-|deemed— From the|lost * ones o- ver|
w: night; Give us|help * ere ’tis too|late— Speed the|light, * oh speed the|
w: live; Dare ye|turn * a deaf- ened|ear? Dare re-|fuse * the light to|
w: pray; Speed the|light, * oh, speed the|light! Je- sus|calls— * do not de-|
 [DB]6 ||"^Refrain" [Fd]>[Fd] | [Ge]4- [Ge]>[Ge] [GB]>[Gc] | [Fd]6 [Fd]>[Fd] | %12
w: there.||||
w: light.||||
w: give?|Speed the|light, * or else we|die; Souls re-|
w: lay.||||
 [Fc-]4 [=Ec]>[EB] [FA]>[EG] | F6 [Fe]>[Fe] | [Fd]4- [Fd]>[Fd] [Ec]>[DB] | [EG]6 [Ec]>[Ge] | %16
w: ||||
w: ||||
w: deemed, oh, speed the light.|Heed, oh heed,|our * an- guished cry—|Speed the light,|
w: ||||
 [Fd]4- [Fd]>[DB] [CA]>[Ec] | B6 |] %18
w: ||
w: ||
w: oh, * speed the light.||
w: ||
V:2
 x2 | x8 | x8 | x11/2 F/ x2 | x8 | x8 | x8 | x8 | x6 || x2 | x8 | x8 | x8 | F6 x2 | x8 | x8 | x8 | %17
 (D2 E>E D2) |] %18
V:3
 z2 | z2 ([B,,F,]>[B,,F,] [B,,F,]>)[B,,B,] [C,A,]>[D,B,] | [E,B,]6 z2 | %3
 z2 ([F,A,]>[F,A,] [F,A,]>)[E,C] [D,B,]>[F,A,] | B,6 z2 | %5
 z2 ([B,,F,]>[B,,F,] [B,,F,]>)[B,,B,] [C,B,]>[D,B,] | [E,B,]6 z2 | %7
 z2 ([F,B,]>[F,B,] [F,B,]>)F, F,>F, | [B,,F,]6 || z2 | ([E,B,]2 [E,B,]2 [E,B,]2) z2 | %11
 z3/2 ([B,,B,]<[D,B,][F,B,]/ B,2) z2 | ([F,A,]2 [F,A,]2 [C,G,]2) z2 | %13
 z3/2 ([F,A,]<[G,B,][G,B,]/ [A,C]2) z2 | ([B,,B,]2 [B,,B,]2 [B,,B,]2) z2 | %15
 z3/2 ([E,B,]/ [G,B,]3/2 B,/) [E,B,]2 z2 | [F,B,]2 [F,B,]2 [F,B,]2 z2 | %17
 z3/2 ([B,,F,]<[B,,G,][B,,_G,]/ F,2) |] %18
V:4
 x2 | x8 | x8 | x8 | B,6 x2 | x8 | x8 | x11/2 F,/ F,>F, | x6 || x2 | x8 | x4 B,2 x2 | x8 | x8 | %14
 x8 | x7/2 B,/ x4 | x8 | x6 |] %18

